Papirus/22x22/panel/skype-indicator.svg

<?xml version="1.0" encoding="UTF-8" standalone="no"?>
<svg xmlns:dc="http://purl.org/dc/elements/1.1/" xmlns:cc="http://creativecommons.org/ns#" xmlns:rdf="http://www.w3.org/1999/02/22-rdf-syntax-ns#" xmlns:svg="http://www.w3.org/2000/svg" xmlns="http://www.w3.org/2000/svg" version="1.0" width="22" height="22" id="svg2817">
    <metadata id="metadata57">
        <rdf:RDF>
            <cc:Work rdf:about="">
                <dc:format>
                    image/svg+xml
                </dc:format>
                <dc:type rdf:resource="http://purl.org/dc/dcmitype/StillImage"/>
                <dc:title/>
            </cc:Work>
        </rdf:RDF>
    </metadata>
    <path id="path4553" d="M 7,3 A 4,4 0 0 0 3,7 4,4 0 0 0 4.1152344,9.769531 7,7 0 0 0 4,11 7,7 0 0 0 11,18 7,7 0 0 0 12.238281,17.886719 4,4 0 0 0 15,19 4,4 0 0 0 19,15 4,4 0 0 0 17.884766,12.230469 7,7 0 0 0 18,11 7,7 0 0 0 11,4 7,7 0 0 0 9.7617188,4.1132812 4,4 0 0 0 7,3 Z m 4.126953,4 c 1.973562,0 2.992188,1.042394 2.992188,1.654297 0,0.613954 -0.294914,0.705078 -0.779297,0.705078 -0.941306,0 -0.555199,-1.132812 -2.31836,-1.132812 -0.583454,0 -1.3124996,0.265465 -1.3124996,0.947265 0,0.548103 0.6456996,0.750048 1.7851566,1.03125 C 13.211652,10.665081 14.5,11.124162 14.5,12.701172 14.5,14.232181 13.253311,15 11.279297,15 9.3057349,15 8.0449219,13.818935 8.0449219,13.207031 c 0,-0.611904 0.2324138,-0.765625 0.7167969,-0.765625 0.942806,0 0.8169671,1.289063 2.5800782,1.289063 0.585504,0 1.449219,-0.267323 1.449219,-0.951172 0,-0.546053 -0.04607,-0.734963 -1.296875,-1.072266 C 10.158132,11.52553 8,11.090839 8,9.423828 8,7.892869 9.1553932,7.001953 11.128906,7.001953 L 11.126953,7 Z" style="opacity:1000002;fill:#ffffff;fill-opacity:1;stroke:none;stroke-width:2;stroke-linecap:round;stroke-linejoin:round;stroke-miterlimit:4;stroke-dasharray:none;stroke-opacity:1"/>
    <path style="fill:#2d9cf2" d="M -22.069,-6.0812" id="path53"/>
</svg>

<?xml version="1.0" encoding="UTF-8" standalone="no"?>
<svg id="svg2817" xmlns:rdf="http://www.w3.org/1999/02/22-rdf-syntax-ns#" xmlns="http://www.w3.org/2000/svg" height="22" width="22" version="1.0" xmlns:cc="http://creativecommons.org/ns#" xmlns:dc="http://purl.org/dc/elements/1.1/">
 <metadata id="metadata57">
  <rdf:RDF>
   <cc:Work rdf:about="">
    <dc:format>image/svg+xml</dc:format>
    <dc:type rdf:resource="http://purl.org/dc/dcmitype/StillImage"/>
    <dc:title/>
   </cc:Work>
  </rdf:RDF>
 </metadata>
 <path id="path4553" opacity="1e6" d="m7 3a4 4 0 0 0 -4 4 4 4 0 0 0 1.1152 2.7695 7 7 0 0 0 -0.1152 1.2305 7 7 0 0 0 7 7 7 7 0 0 0 1.238 -0.113 4 4 0 0 0 2.762 1.113 4 4 0 0 0 4 -4 4 4 0 0 0 -1.115 -2.77 7 7 0 0 0 0.115 -1.23 7 7 0 0 0 -7 -7 7 7 0 0 0 -1.2383 0.1133 4 4 0 0 0 -2.7617 -1.1133zm4.127 4c1.9736 0 2.9922 1.0424 2.9922 1.6543 0 0.61395-0.29491 0.70508-0.7793 0.70508-0.94131 0-0.5552-1.1328-2.3184-1.1328-0.58345 0-1.3125 0.26546-1.3125 0.94726 0 0.5481 0.6457 0.75005 1.7852 1.0312 1.718 0.46 3.006 0.919 3.006 2.496 0 1.531-1.247 2.299-3.221 2.299-1.9733 0-3.2341-1.181-3.2341-1.793 0-0.6119 0.23241-0.76562 0.7168-0.76562 0.94281 0 0.81697 1.2891 2.5801 1.2891 0.5855 0 1.4492-0.26732 1.4492-0.95117 0-0.54605-0.04607-0.73496-1.2969-1.0723-1.336-0.181-3.494-0.616-3.494-2.2832 0-1.5309 1.1554-2.4218 3.129-2.4218l-0.002-0.002z" fill="#fff"/>
 <path id="path53" fill="#2d9cf2" d="m-22.069-6.0812"/>
</svg>
